X:76
T:Joe Cooley's
Z: id:dc-jig-151
M:6/8
L:1/8
K:D Major
e|fef d2B|A3 ABd|e3 edB|e3 efg|!
fef d2B|A3 ABd|e3 edB|d3-d2:|!
e|fef a2f|fef afd|e3 edB|e3 d2e|!
[1 fef a2f|fef afd|efe ede|f2e d2:|!
[2 fef d2B|A3 ABd|e3 ede|f2e d2|]!

